canopeum_frontend/src/assets/icons/site-survived.svg

<svg width="24" height="24" viewBox="0 0 24 24" fill="none" xmlns="http://www.w3.org/2000/svg">
<path fill-rule="evenodd" clip-rule="evenodd" d="M14.3396 6.55773C14.0347 6.52123 13.8344 6.22108 13.9178 5.92553L14.272 4.66994C14.3207 4.4972 14.3473 4.31348 14.3473 4.12095C14.3473 3.00158 13.4337 2.09415 12.3068 2.09415C11.1799 2.09415 10.2663 3.00158 10.2663 4.12095C10.2663 4.31348 10.2929 4.49719 10.3416 4.66994L10.6958 5.92553C10.7792 6.22108 10.5789 6.52123 10.274 6.55773L8.96715 6.71418C7.95825 6.83496 7.17543 7.691 7.17543 8.72624C7.17543 9.1492 7.30407 9.53742 7.52442 9.86049L8.27687 10.9637C8.45277 11.2216 8.35194 11.5759 8.06659 11.7025L6.83976 12.2468C6.1237 12.5646 5.62997 13.2763 5.62997 14.0991C5.62997 15.2185 6.54353 16.1259 7.67045 16.1259C8.16071 16.1259 8.60668 15.9562 8.95847 15.6712L9.98864 14.8367L11.0188 15.6712C11.3706 15.9562 11.8166 16.1259 12.3068 16.1259C12.8477 16.1259 13.3363 15.919 13.7027 15.5774L14.8182 14.5375L15.9337 15.5774C16.3 15.919 16.7887 16.1259 17.3295 16.1259C18.4565 16.1259 19.37 15.2185 19.37 14.0991C19.37 13.2117 18.795 12.4536 17.9901 12.1804L16.6495 11.7252C16.344 11.6215 16.2153 11.26 16.3864 10.9865L17.1329 9.79358C17.3263 9.48467 17.4382 9.12092 17.4382 8.72624C17.4382 7.691 16.6554 6.83496 15.6465 6.71418L14.3396 6.55773ZM16.9153 5.40561C16.5811 5.25471 16.2202 5.1521 15.8415 5.10677C15.93 4.79321 15.9773 4.46257 15.9773 4.12095C15.9773 4.08161 15.9766 4.04241 15.9754 4.00336C15.9129 2.04423 14.2943 0.475098 12.3068 0.475098C10.3193 0.475098 8.70073 2.04423 8.63824 4.00336C8.63699 4.04241 8.63636 4.08161 8.63636 4.12095C8.63636 4.46257 8.68366 4.79321 8.77212 5.10677C8.39343 5.1521 8.0325 5.25471 7.69835 5.40562C6.42845 5.97914 5.54545 7.25027 5.54545 8.72624C5.54545 9.03116 5.58314 9.32733 5.65413 9.61041C5.75934 10.0299 5.93769 10.4207 6.17497 10.7686C5.77998 10.9438 5.42189 11.1864 5.11546 11.4815C4.42753 12.1442 4 13.072 4 14.0991C4 16.1126 5.64332 17.7449 7.67045 17.7449C8.54963 17.7449 9.3566 17.4379 9.98864 16.9259C10.4484 17.2984 11.0008 17.5624 11.6062 17.6786V21.5237H8.88989V23.1428H15.9531V21.5237H13.2362V17.6271C13.8374 17.4712 14.3786 17.1677 14.8182 16.758C15.4747 17.37 16.3581 17.7449 17.3295 17.7449C19.3567 17.7449 21 16.1126 21 14.0991C21 13.0815 20.5803 12.1613 19.9035 11.5C19.5157 11.121 19.0434 10.827 18.5173 10.6483C18.8011 10.1948 18.9875 9.67482 19.0473 9.11728C19.0611 8.98881 19.0682 8.85835 19.0682 8.72624C19.0682 7.25026 18.1852 5.97913 16.9153 5.40561Z" fill="#007E51"/>
</svg>

<svg width="24" height="24" fill="none" xmlns="http://www.w3.org/2000/svg">
  <path fill-rule="evenodd" clip-rule="evenodd"
    d="M14.34 6.558a.5.5 0 01-.422-.632l.354-1.256a2.034 2.034 0 00-1.965-2.576 2.034 2.034 0 00-1.965 2.576l.354 1.256a.5.5 0 01-.422.632l-1.307.156a2.032 2.032 0 00-1.792 2.012 2 2 0 00.35 1.134l.752 1.104a.5.5 0 01-.21.739l-1.227.544a2.027 2.027 0 00-1.21 1.852c0 1.12.914 2.027 2.04 2.027.49 0 .937-.17 1.288-.455l1.03-.834 1.03.834c.353.285.799.455 1.289.455.54 0 1.03-.207 1.396-.549l1.115-1.04 1.116 1.04c.366.342.855.549 1.396.549 1.127 0 2.04-.908 2.04-2.027a2.03 2.03 0 00-1.38-1.919l-1.34-.455a.5.5 0 01-.264-.739l.747-1.192a2 2 0 00.305-1.068 2.032 2.032 0 00-1.791-2.012l-1.307-.156zm2.575-1.152a3.665 3.665 0 00-1.073-.3 3.624 3.624 0 00.133-1.103c-.062-1.959-1.68-3.528-3.668-3.528-1.988 0-3.606 1.57-3.669 3.528a3.675 3.675 0 00.134 1.104c-.379.045-.74.148-1.074.299A3.645 3.645 0 005.654 9.61c.105.42.284.81.521 1.159a3.678 3.678 0 00-1.06.713A3.623 3.623 0 004 14.099c0 2.014 1.643 3.646 3.67 3.646a3.67 3.67 0 002.319-.82c.46.373 1.012.637 1.617.754v3.845H8.89v1.619h7.063v-1.62h-2.717v-3.896a3.673 3.673 0 001.582-.869c.657.612 1.54.987 2.511.987 2.028 0 3.671-1.632 3.671-3.646 0-1.018-.42-1.938-1.096-2.599a3.675 3.675 0 00-1.387-.852 3.607 3.607 0 00.551-1.922 3.645 3.645 0 00-2.153-3.32z"
    fill="#007E51" />
</svg>
